dist/static/img/optimize/rocket.svg

<svg width="320" height="400" viewBox="0 0 320 400" fill="none" xmlns="http://www.w3.org/2000/svg">
<g opacity="0.2">
<path d="M105.263 304.866L15.136 214.739C12.3706 211.974 7.88717 211.974 5.12186 214.739L-14.9063 234.767C-17.6717 237.532 -17.6716 242.016 -14.9063 244.781L75.2205 334.908C77.9859 337.673 82.4693 337.673 85.2346 334.908L105.263 314.88C108.028 312.115 108.028 307.631 105.263 304.866Z" fill="#1F5AFF"/>
<path d="M140.31 179.69C145.841 185.22 154.808 185.22 160.338 179.69C165.869 174.159 165.869 165.192 160.338 159.661C154.808 154.131 145.841 154.131 140.31 159.661C134.779 165.192 134.779 174.159 140.31 179.69Z" fill="#1F5AFF"/>
<path d="M276.564 70.4759L272.373 52.8761C272.074 51.5995 271.424 50.4318 270.497 49.5047C269.57 48.5775 268.402 47.9278 267.125 47.6287L249.526 43.4378C227.059 38.1395 203.813 36.9941 180.934 40.0581L279.944 139.067C283.007 116.189 281.862 92.9426 276.564 70.4759Z" fill="#1F5AFF"/>
<path d="M180.367 139.633C174.425 133.691 166.854 129.645 158.613 128.006C150.371 126.366 141.829 127.208 134.065 130.423C126.302 133.639 119.667 139.085 114.998 146.071C110.33 153.058 107.838 161.272 107.838 169.675C107.838 178.078 110.33 186.293 114.998 193.28C119.667 200.266 126.302 205.712 134.065 208.928C141.829 212.143 150.371 212.985 158.613 211.345C166.854 209.706 174.425 205.66 180.367 199.718C188.322 191.744 192.79 180.939 192.79 169.675C192.79 158.411 188.322 147.607 180.367 139.633ZM130.296 189.704C126.335 185.742 123.637 180.696 122.544 175.201C121.451 169.707 122.012 164.012 124.156 158.836C126.3 153.661 129.93 149.237 134.588 146.125C139.246 143.013 144.722 141.351 150.324 141.351C155.926 141.351 161.402 143.013 166.06 146.125C170.718 149.237 174.349 153.661 176.492 158.836C178.636 164.012 179.197 169.707 178.104 175.201C177.011 180.696 174.314 185.742 170.352 189.704C165.041 195.015 157.836 198 150.324 198C142.812 198 135.608 195.015 130.296 189.704Z" fill="#1F5AFF"/>
<path d="M56.8429 88.4312C45.9314 85.5045 34.4423 85.4978 23.5275 88.412C12.6127 91.3261 2.65587 97.0585 -5.34467 105.035L-74.9927 174.683C-76.3207 176.011 -77.0667 177.812 -77.0667 179.69C-77.0667 181.568 -76.3207 183.369 -74.9927 184.697C-66.5625 193.185 -55.9226 199.141 -44.2796 201.89C-32.6366 204.638 -20.4563 204.07 -9.11997 200.249L-3.86761 198.491L17.838 147.845C27.2801 125.92 40.4801 105.813 56.8429 88.4312Z" fill="#1F5AFF"/>
<path d="M231.569 263.157C214.184 279.527 194.072 292.732 172.141 302.177L121.499 323.878L119.742 329.13C115.924 340.466 115.358 352.645 118.108 364.286C120.859 375.927 126.816 386.564 135.304 394.993C136.632 396.321 138.433 397.067 140.311 397.067C142.189 397.067 143.99 396.321 145.318 394.993L214.966 325.345C222.942 317.344 228.674 307.387 231.588 296.472C234.503 285.558 234.496 274.068 231.569 263.157Z" fill="#1F5AFF"/>
<path d="M239.405 234.061C257.745 211.311 270.598 184.641 276.968 156.121L163.878 43.0322C134.53 49.552 107.155 62.9667 84.02 82.1663C60.8849 101.366 42.6541 125.799 30.8361 153.443L13.6069 193.704C14.1589 193.97 14.6725 194.308 15.134 194.711L125.289 304.866C125.7 305.332 126.046 305.853 126.316 306.413L166.577 289.184C194.958 276.977 219.95 258.061 239.405 234.061ZM110.268 209.732C102.346 201.809 96.9503 191.716 94.7645 180.727C92.5787 169.738 93.7006 158.348 97.9881 147.997C102.276 137.646 109.536 128.799 118.852 122.574C128.168 116.35 139.12 113.027 150.324 113.027C161.528 113.027 172.481 116.35 181.796 122.574C191.112 128.799 198.373 137.646 202.661 147.997C206.948 158.348 208.07 169.738 205.884 180.727C203.698 191.716 198.303 201.809 190.381 209.732C179.749 220.34 165.343 226.297 150.324 226.297C135.305 226.297 120.9 220.34 110.268 209.732Z" fill="#1F5AFF"/>
<path d="M-13.4401 312.091L-11.933 325.675C-11.7559 327.274 -11.0396 328.765 -9.902 329.903C-8.76437 331.041 -7.27325 331.757 -5.67417 331.934L7.90994 333.441C14.1694 334.105 20.4987 333.486 26.5105 331.62C32.5223 329.754 38.0904 326.682 42.8742 322.591L-2.58984 277.127C-6.68104 281.911 -9.75341 287.479 -11.619 293.491C-13.4846 299.502 -14.1043 305.832 -13.4401 312.091Z" fill="#1F5AFF"/>
</g>
</svg>

<svg width="320" height="400" viewBox="0 0 320 400" fill="none" xmlns="http://www.w3.org/2000/svg"><g opacity=".2" fill="#1F5AFF"><path d="M105.263 304.866l-90.127-90.127a7.082 7.082 0 00-10.014 0l-20.028 20.028a7.08 7.08 0 000 10.014l90.127 90.127a7.082 7.082 0 0010.014 0l20.028-20.028a7.081 7.081 0 000-10.014zM140.31 179.69c5.531 5.53 14.498 5.53 20.028 0 5.531-5.531 5.531-14.498 0-20.029-5.53-5.53-14.497-5.53-20.028 0-5.531 5.531-5.531 14.498 0 20.029zM276.564 70.476l-4.191-17.6a7.039 7.039 0 00-5.248-5.247l-17.599-4.191a189.34 189.34 0 00-68.592-3.38l99.01 99.009a189.365 189.365 0 00-3.38-68.591z"/><path d="M180.367 139.633a42.485 42.485 0 00-46.302-9.21 42.49 42.49 0 000 78.505 42.488 42.488 0 0046.302-9.21 42.54 42.54 0 000-60.085zm-50.071 50.071a28.33 28.33 0 01-6.14-30.868 28.325 28.325 0 116.14 30.868zM56.843 88.431a64.437 64.437 0 00-62.188 16.604l-69.648 69.648a7.08 7.08 0 000 10.014A64.021 64.021 0 00-9.12 200.249l5.252-1.758 21.706-50.646a204.941 204.941 0 0139.005-59.414zm174.726 174.726a204.931 204.931 0 01-59.428 39.02l-50.642 21.701-1.757 5.252a64.026 64.026 0 00-1.634 35.156 64.028 64.028 0 0017.196 30.707 7.08 7.08 0 0010.014 0l69.648-69.648a64.439 64.439 0 0016.603-62.188z"/><path d="M239.405 234.061a190.269 190.269 0 0037.563-77.94L163.878 43.032A189.35 189.35 0 0030.836 153.443l-17.23 40.261a6.824 6.824 0 011.528 1.007l110.155 110.155c.411.466.757.987 1.027 1.547l40.261-17.229a190.792 190.792 0 0072.828-55.123zm-129.137-24.329a56.653 56.653 0 01-12.28-61.735 56.651 56.651 0 0152.336-34.97 56.65 56.65 0 0155.56 67.7 56.654 56.654 0 01-15.503 29.005 56.713 56.713 0 01-80.113 0zM-13.44 312.091l1.507 13.584a7.083 7.083 0 006.259 6.259l13.584 1.507a46.278 46.278 0 0034.964-10.85L-2.59 277.127a46.283 46.283 0 00-10.85 34.964z"/></g></svg>
